src/assets/tokens/ETHx.svg

<svg width="24" height="24" viewBox="0 0 24 24" fill="none" xmlns="http://www.w3.org/2000/svg">
<path fill-rule="evenodd" clip-rule="evenodd" d="M24 12C24 18.6274 18.6274 24 12 24C5.37258 24 0 18.6274 0 12C0 5.37258 5.37258 0 12 0C18.6274 0 24 5.37258 24 12ZM17.1421 21.3848L21.3848 17.1421L19.3669 15.1243C18.5576 17.0303 17.0303 18.5576 15.1243 19.3669L17.1421 21.3848ZM9.43294 19.5793C7.45322 18.909 5.82115 17.4848 4.87848 15.6484L3.24264 17.2843L7.48528 21.5269L9.43294 19.5793ZM4.63306 8.8757C5.44239 6.96975 6.96975 5.44239 8.8757 4.63306L7.24264 3L3 7.24264L4.63306 8.8757ZM15.6484 4.87848L17.3848 3.14214L21.6274 7.38478L19.5793 9.43294C18.909 7.45322 17.4848 5.82115 15.6484 4.87848Z" fill="#060710"/>
<path d="M11.9995 6L11.9189 6.27346V14.208L11.9995 14.2884L15.6825 12.1113L11.9995 6Z" fill="#B7B7B7"/>
<path d="M11.9991 6L8.31592 12.1113L11.9991 14.2884V10.4371V6Z" fill="white"/>
<path d="M11.9995 14.9857L11.9541 15.041V17.8674L11.9995 17.9999L15.6848 12.8097L11.9995 14.9857Z" fill="#939090"/>
<path d="M11.9991 17.9999V14.9857L8.31592 12.8097L11.9991 17.9999Z" fill="white"/>
<path d="M11.999 14.2884L15.6821 12.1113L11.999 10.4371V14.2884Z" fill="#939090"/>
<path d="M8.31592 12.1113L11.9991 14.2884V10.4371L8.31592 12.1113Z" fill="#B1B1B1"/>
</svg>

<svg width="24" height="24" fill="none" xmlns="http://www.w3.org/2000/svg"><path fill-rule="evenodd" clip-rule="evenodd" d="M24 12c0 6.627-5.373 12-12 12S0 18.627 0 12 5.373 0 12 0s12 5.373 12 12zm-6.858 9.385l4.243-4.243-2.018-2.018a8.028 8.028 0 0 1-4.243 4.243l2.018 2.018zm-7.71-1.806a8.025 8.025 0 0 1-4.554-3.93l-1.635 1.635 4.242 4.243 1.948-1.948zM4.634 8.876a8.028 8.028 0 0 1 4.243-4.243L7.243 3 3 7.243l1.633 1.633zm11.015-3.998l1.737-1.736 4.242 4.243-2.048 2.048a8.025 8.025 0 0 0-3.93-4.555z" fill="#060710"/><path d="M12 6l-.081.273v7.935l.08.08 3.683-2.177L12 6z" fill="#B7B7B7"/><path d="M12 6l-3.684 6.111 3.683 2.177V6z" fill="#fff"/><path d="M12 14.986l-.046.055v2.826L12 18l3.686-5.19L12 14.986z" fill="#939090"/><path d="M12 18v-3.014L8.315 12.81 11.999 18z" fill="#fff"/><path d="M11.999 14.288l3.683-2.177L12 10.437v3.851z" fill="#939090"/><path d="M8.316 12.111l3.683 2.177v-3.85L8.316 12.11z" fill="#B1B1B1"/></svg>
